src/assets/images/icons/calendar-icon.svg

<svg width="17" height="18" viewBox="0 0 17 18" fill="none" xmlns="http://www.w3.org/2000/svg">
<path d="M4.80001 0.175293C4.95709 0.175293 5.10774 0.237694 5.21881 0.348768C5.32989 0.459842 5.39229 0.61049 5.39229 0.767573V1.87514H11.7525V0.775188C11.7525 0.618106 11.8149 0.467457 11.926 0.356383C12.0371 0.245309 12.1877 0.182908 12.3448 0.182908C12.5019 0.182908 12.6525 0.245309 12.7636 0.356383C12.8747 0.467457 12.9371 0.618106 12.9371 0.775188V1.87514H15.2301C15.6787 1.87514 16.109 2.05331 16.4263 2.37048C16.7437 2.68765 16.9221 3.11786 16.9223 3.56652V15.4062C16.9221 15.8549 16.7437 16.2851 16.4263 16.6022C16.109 16.9194 15.6787 17.0976 15.2301 17.0976H1.69223C1.24357 17.0976 0.813271 16.9194 0.495941 16.6022C0.178611 16.2851 0.00022433 15.8549 0 15.4062L0 3.56652C0.00022433 3.11786 0.178611 2.68765 0.495941 2.37048C0.813271 2.05331 1.24357 1.87514 1.69223 1.87514H4.20773V0.766727C4.20795 0.609791 4.27045 0.45936 4.3815 0.348468C4.49255 0.237577 4.64307 0.175293 4.80001 0.175293ZM1.18456 6.72591V15.4062C1.18456 15.4729 1.19769 15.5389 1.2232 15.6005C1.24872 15.6621 1.28611 15.718 1.33325 15.7652C1.38039 15.8123 1.43636 15.8497 1.49795 15.8752C1.55955 15.9007 1.62556 15.9139 1.69223 15.9139H15.2301C15.2967 15.9139 15.3627 15.9007 15.4243 15.8752C15.4859 15.8497 15.5419 15.8123 15.589 15.7652C15.6362 15.718 15.6736 15.6621 15.6991 15.6005C15.7246 15.5389 15.7377 15.4729 15.7377 15.4062V6.73775L1.18456 6.72591ZM5.64104 12.5446V13.9543H4.23057V12.5446H5.64104ZM9.16595 12.5446V13.9543H7.75633V12.5446H9.16595ZM12.6917 12.5446V13.9543H11.2812V12.5446H12.6917ZM5.64104 9.17964V10.5893H4.23057V9.17964H5.64104ZM9.16595 9.17964V10.5893H7.75633V9.17964H9.16595ZM12.6917 9.17964V10.5893H11.2812V9.17964H12.6917ZM4.20773 3.05885H1.69223C1.62556 3.05885 1.55955 3.07198 1.49795 3.09749C1.43636 3.12301 1.38039 3.1604 1.33325 3.20754C1.28611 3.25468 1.24872 3.31065 1.2232 3.37224C1.19769 3.43384 1.18456 3.49985 1.18456 3.56652V5.54219L15.7377 5.55404V3.56652C15.7377 3.49985 15.7246 3.43384 15.6991 3.37224C15.6736 3.31065 15.6362 3.25468 15.589 3.20754C15.5419 3.1604 15.4859 3.12301 15.4243 3.09749C15.3627 3.07198 15.2967 3.05885 15.2301 3.05885H12.9371V3.84489C12.9371 4.00197 12.8747 4.15262 12.7636 4.2637C12.6525 4.37477 12.5019 4.43717 12.3448 4.43717C12.1877 4.43717 12.0371 4.37477 11.926 4.2637C11.8149 4.15262 11.7525 4.00197 11.7525 3.84489V3.05885H5.39229V3.83728C5.39229 3.99436 5.32989 4.14501 5.21881 4.25608C5.10774 4.36715 4.95709 4.42955 4.80001 4.42955C4.64292 4.42955 4.49227 4.36715 4.3812 4.25608C4.27013 4.14501 4.20773 3.99436 4.20773 3.83728V3.05885Z" fill="#8892B0"/>
</svg>

<svg xmlns="http://www.w3.org/2000/svg" width="17" height="18" fill="none"><path fill="#8892B0" d="M4.8.175a.592.592 0 0 1 .592.593v1.107h6.36v-1.1a.592.592 0 1 1 1.185 0v1.1h2.293a1.692 1.692 0 0 1 1.692 1.692v11.84a1.692 1.692 0 0 1-1.692 1.69H1.692A1.692 1.692 0 0 1 0 15.408V3.566a1.692 1.692 0 0 1 1.692-1.692h2.516V.767A.592.592 0 0 1 4.8.175Zm-3.615 6.55v8.681a.508.508 0 0 0 .507.508H15.23a.508.508 0 0 0 .508-.508V6.738L1.185 6.726Zm4.456 5.82v1.41h-1.41v-1.41h1.41Zm3.525 0v1.41h-1.41v-1.41h1.41Zm3.526 0v1.41h-1.41v-1.41h1.41ZM5.64 9.18v1.41h-1.41V9.18h1.41Zm3.525 0v1.41h-1.41V9.18h1.41Zm3.526 0v1.41h-1.41V9.18h1.41ZM4.208 3.059H1.692a.508.508 0 0 0-.507.508v1.975l14.553.012V3.567a.508.508 0 0 0-.508-.508h-2.293v.786a.592.592 0 1 1-1.184 0v-.786h-6.36v.778a.592.592 0 1 1-1.185 0V3.06Z"/></svg>
